svg/logo/medium_line.svg

<?xml version="1.0" encoding="UTF-8"?>
<svg width="24px" height="24px" viewBox="0 0 24 24" version="1.1" xmlns="http://www.w3.org/2000/svg" xmlns:xlink="http://www.w3.org/1999/xlink">
    <title>medium_line</title>
    <g id="Icon" stroke="none" stroke-width="1" fill="none" fill-rule="evenodd">
        <g id="Logo" transform="translate(-384.000000, 0.000000)">
            <g id="medium_line" transform="translate(384.000000, 0.000000)">
                <rect id="矩形" fill-rule="nonzero" x="0" y="0" width="24" height="24"></rect>
                <path d="M8,6 C11.3137,6 14,8.68629 14,12 C14,15.3137 11.3137,18 8,18 C4.68629,18 2,15.3137 2,12 C2,8.68629 4.68629,6 8,6 Z M17,7 C18.5,7 19.5,9.23858 19.5,12 C19.5,14.7614 18.5,17 17,17 C15.5,17 14.5,14.7614 14.5,12 C14.5,9.23858 15.5,7 17,7 Z M21,7.5 C21.3808966,7.5 21.7120428,8.32691082 21.8808962,9.74595777 L21.9265709,10.1892012 C21.9333344,10.2659575 21.939664,10.3441355 21.9455457,10.4237057 L21.9753479,10.9176001 C21.9793816,11.0026222 21.9829391,11.0889779 21.9860066,11.1766379 L21.998417,11.7180139 C21.9994677,11.8107735 22,11.9047786 22,12 L21.998417,12.2819842 L21.998417,12.2819842 L21.9860066,12.8233572 C21.9829391,12.9110167 21.9793816,12.997372 21.9753479,13.0823937 L21.9455457,13.5762865 C21.939664,13.6558565 21.9333344,13.7340343 21.9265709,13.8107905 L21.8808962,14.2540334 C21.7120428,15.6730797 21.3808966,16.5 21,16.5 C20.6191034,16.5 20.2879572,15.6730797 20.1191038,14.2540334 L20.0734291,13.8107905 C20.0666656,13.7340343 20.060336,13.6558565 20.0544543,13.5762865 L20.0246521,13.0823937 C20.0206184,12.997372 20.0170609,12.9110167 20.0139934,12.8233572 L20.001583,12.2819842 L20.001583,12.2819842 L20.001583,11.7180139 L20.001583,11.7180139 L20.0139934,11.1766379 C20.0170609,11.0889779 20.0206184,11.0026222 20.0246521,10.9176001 L20.0544543,10.4237057 C20.060336,10.3441355 20.0666656,10.2659575 20.0734291,10.1892012 L20.1191038,9.74595777 C20.2879572,8.32691082 20.6191034,7.5 21,7.5 Z M8,8 C5.79086,8 4,9.79086 4,12 C4,14.2091 5.79086,16 8,16 C10.2091,16 12,14.2091 12,12 C12,9.79086 10.2091,8 8,8 Z M16.9563,9.4032 C16.5925,10.2023 16.5,11.1342 16.5,12 C16.5,12.8658 16.5924,13.7977 16.9563,14.5968 C16.9736,14.6347 17.0264,14.6347 17.0437,14.5968 C17.4075,13.7977 17.5,12.8658 17.5,12 C17.5,11.1342 17.4076,10.2023 17.0437,9.40319 C17.0264,9.36531 16.9736,9.36531 16.9563,9.4032 Z" id="形状" fill="#09244B"></path>
            </g>
        </g>
    </g>
</svg>

<svg xmlns="http://www.w3.org/2000/svg" width="24" height="24"><g fill="none" fill-rule="evenodd"><path d="M0 0h24v24H0z"/><path fill="#09244B" d="M8 6a6 6 0 1 1 0 12A6 6 0 0 1 8 6Zm9 1c1.5 0 2.5 2.239 2.5 5s-1 5-2.5 5-2.5-2.239-2.5-5 1-5 2.5-5Zm4 .5c.38 0 .712.827.88 2.246l.047.443.019.235.03.494.01.259.012.541L22 12l-.002.282-.012.541-.01.26-.03.493-.02.235-.045.443c-.169 1.42-.5 2.246-.881 2.246-.38 0-.712-.827-.88-2.246l-.047-.443a16.683 16.683 0 0 1-.019-.235l-.03-.494a20.863 20.863 0 0 1-.01-.259l-.012-.541v-.564l.012-.541.01-.26.03-.493.02-.235.045-.443c.169-1.42.5-2.246.881-2.246ZM8 8a4 4 0 1 0 0 8 4 4 0 0 0 0-8Zm8.956 1.403c-.363.8-.456 1.731-.456 2.597 0 .866.092 1.798.456 2.597.018.038.07.038.088 0 .363-.8.456-1.731.456-2.597 0-.866-.092-1.798-.456-2.597a.048.048 0 0 0-.088 0Z"/></g></svg>
